package/converter/svg/thin/square-small.svg

<svg xmlns="http://www.w3.org/2000/svg" viewBox="0 0 320 512"><!-- Font Awesome Pro 6.0.0-alpha2 by @fontawesome - https://fontawesome.com License - https://fontawesome.com/license (Commercial License) --><path d="M256 96H64C28.654 96 0 124.654 0 160V352C0 387.346 28.654 416 64 416H256C291.346 416 320 387.346 320 352V160C320 124.654 291.346 96 256 96ZM304 352C304 378.467 282.467 400 256 400H64C37.533 400 16 378.467 16 352V160C16 133.533 37.533 112 64 112H256C282.467 112 304 133.533 304 160V352Z"/></svg>

<svg xmlns="http://www.w3.org/2000/svg" viewBox="0 0 320 512"><!--! Font Awesome Pro 6.6.0 by @fontawesome - https://fontawesome.com License - https://fontawesome.com/license (Commercial License) Copyright 2024 Fonticons, Inc. --><path d="M256 112c26.5 0 48 21.5 48 48l0 192c0 26.5-21.5 48-48 48L64 400c-26.5 0-48-21.5-48-48l0-192c0-26.5 21.5-48 48-48l192 0zM64 96C28.7 96 0 124.7 0 160L0 352c0 35.3 28.7 64 64 64l192 0c35.3 0 64-28.7 64-64l0-192c0-35.3-28.7-64-64-64L64 96z"/></svg>
